icons/circle/48/zsnes.svg

<svg xmlns="http://www.w3.org/2000/svg" viewBox="0 0 48 48">
  <defs>
    <linearGradient id="a" x1="1" x2="47" gradientUnits="userSpaceOnUse" gradientTransform="rotate(-90 24 24)">
      <stop stop-color="#a0a0a0"/>
      <stop offset="1" stop-color="#aaa"/>
    </linearGradient>
  </defs>
  <path d="M36.31 5c5.859 4.062 9.688 10.831 9.688 18.5 0 12.426-10.07 22.5-22.5 22.5-7.669 0-14.438-3.828-18.5-9.688a23.24 23.24 0 0 0 3.781 4.969 22.923 22.923 0 0 0 15.469 5.969c12.703 0 23-10.298 23-23a22.92 22.92 0 0 0-5.969-15.469A23.216 23.216 0 0 0 36.31 5zm4.969 3.781A22.911 22.911 0 0 1 47.498 24.5c0 12.703-10.297 23-23 23a22.909 22.909 0 0 1-15.719-6.219C12.939 45.425 18.662 48 24.998 48c12.703 0 23-10.298 23-23 0-6.335-2.575-12.06-6.719-16.219z" opacity=".05"/>
  <path d="M41.28 8.781a22.923 22.923 0 0 1 5.969 15.469c0 12.703-10.297 23-23 23A22.92 22.92 0 0 1 8.78 41.281 22.911 22.911 0 0 0 24.499 47.5c12.703 0 23-10.298 23-23A22.909 22.909 0 0 0 41.28 8.781z" opacity=".1"/>
  <path d="M31.25 2.375C39.865 5.529 46 13.792 46 23.505c0 12.426-10.07 22.5-22.5 22.5-9.708 0-17.971-6.135-21.12-14.75a23 23 0 0 0 44.875-7 23 23 0 0 0-16-21.875z" opacity=".2"/>
  <path d="M24 1c12.703 0 23 10.297 23 23S36.703 47 24 47 1 36.703 1 24 11.297 1 24 1z" fill="url(#a)"/>
  <path d="M25 10a15 15 0 0 0-15 15 15 15 0 0 0 15 15 15 15 0 0 0 15-15 15 15 0 0 0-15-15zm0 2a13 13 0 0 1 13 13 13 13 0 0 1-13 13 13 13 0 0 1-13-13 13 13 0 0 1 13-13zm.451 1.754c-1.06 0-2.119.406-2.931 1.217l-7.54 7.525a4.124 4.124 0 0 0 0 5.854 4.143 4.143 0 0 0 5.864 0l7.539-7.528a4.117 4.117 0 0 0 0-5.851 4.135 4.135 0 0 0-2.932-1.217zm.002.594c.91 0 1.817.347 2.514 1.041a3.54 3.54 0 0 1 0 5.019 3.56 3.56 0 0 1-5.029 0 3.547 3.547 0 0 1 0-5.019 3.548 3.548 0 0 1 2.515-1.041zm6.697 6.09c-1.06 0-2.11.406-2.93 1.216l-7.54 7.526a4.11 4.11 0 0 0 0 5.85 4.145 4.145 0 0 0 5.867 0l7.543-7.52a4.134 4.134 0 0 0 0-5.856 4.172 4.172 0 0 0-2.94-1.216zm0 .602c.91 0 1.825.341 2.522 1.03a3.546 3.546 0 0 1 0 5.02 3.565 3.565 0 0 1-5.031 0 3.541 3.541 0 0 1 2.509-6.05zm-14.24.835a3.55 3.55 0 0 1 2.518 6.061c-1.398 1.387-3.648 1.387-5.03 0a3.549 3.549 0 0 1 2.512-6.061zm6.703 6.684c.909 0 1.817.347 2.507 1.041a3.538 3.538 0 0 1 0 5.019 3.541 3.541 0 0 1-5.02 0 3.543 3.543 0 0 1 0-5.019 3.547 3.547 0 0 1 2.513-1.041z" fill-opacity=".098"/>
  <path d="M24.451 12.754c-1.06 0-2.119.404-2.932 1.215l-7.539 7.527a4.122 4.122 0 0 0 0 5.852 4.142 4.142 0 0 0 5.863 0l7.539-7.527a4.122 4.122 0 0 0 0-5.852 4.135 4.135 0 0 0-2.932-1.215zm.002.594c.91 0 1.819.346 2.514 1.039a3.541 3.541 0 0 1 0 5.02 3.56 3.56 0 0 1-5.03 0 3.548 3.548 0 0 1 2.516-6.059zm6.701 6.09c-1.06 0-2.119.406-2.932 1.217l-7.543 7.525a4.122 4.122 0 0 0 0 5.852 4.147 4.147 0 0 0 5.867 0l7.539-7.521a4.125 4.125 0 0 0 0-5.855 4.138 4.138 0 0 0-2.932-1.217zm0 .598a3.548 3.548 0 0 1 2.518 6.057 3.568 3.568 0 0 1-5.03 0 3.548 3.548 0 0 1 2.514-6.057zm-14.244.838c.91 0 1.821.348 2.518 1.041a3.548 3.548 0 0 1 0 5.02 3.56 3.56 0 0 1-5.03 0 3.541 3.541 0 0 1 0-5.02 3.54 3.54 0 0 1 2.512-1.041zm6.703 6.686c.909 0 1.816.348 2.508 1.041a3.541 3.541 0 0 1 0 5.02 3.534 3.534 0 0 1-5.02 0 3.541 3.541 0 0 1 0-5.02 3.541 3.541 0 0 1 2.512-1.041z" fill="#f9f9f9"/>
  <g>
    <path d="M40.03 7.531A22.922 22.922 0 0 1 45.999 23c0 12.703-10.297 23-23 23A22.92 22.92 0 0 1 7.53 40.031C11.708 44.322 17.54 47 23.999 47c12.703 0 23-10.298 23-23 0-6.462-2.677-12.291-6.969-16.469z" opacity=".1"/>
  </g>
  <path d="M24 9A15 15 0 0 0 9 24a15 15 0 0 0 15 15 15 15 0 0 0 15-15A15 15 0 0 0 24 9m0 2a13 13 0 0 1 13 13 13 13 0 0 1-13 13 13 13 0 0 1-13-13 13 13 0 0 1 13-13" fill="#f9f9f9"/>
</svg>

<svg xmlns="http://www.w3.org/2000/svg" viewBox="0 0 48 48">
 <defs>
  <linearGradient id="linearGradient3764" x1="1" x2="47" gradientUnits="userSpaceOnUse" gradientTransform="matrix(0,-1,1,0,-1.5e-6,47.999998)">
   <stop style="stop-color:#a0a0a0;stop-opacity:1"/>
   <stop offset="1" style="stop-color:#aaa;stop-opacity:1"/>
  </linearGradient>
 </defs>
 <g>
  <path d="m 36.31 5 c 5.859 4.062 9.688 10.831 9.688 18.5 c 0 12.426 -10.07 22.5 -22.5 22.5 c -7.669 0 -14.438 -3.828 -18.5 -9.688 c 1.037 1.822 2.306 3.499 3.781 4.969 c 4.085 3.712 9.514 5.969 15.469 5.969 c 12.703 0 23 -10.298 23 -23 c 0 -5.954 -2.256 -11.384 -5.969 -15.469 c -1.469 -1.475 -3.147 -2.744 -4.969 -3.781 z m 4.969 3.781 c 3.854 4.113 6.219 9.637 6.219 15.719 c 0 12.703 -10.297 23 -23 23 c -6.081 0 -11.606 -2.364 -15.719 -6.219 c 4.16 4.144 9.883 6.719 16.219 6.719 c 12.703 0 23 -10.298 23 -23 c 0 -6.335 -2.575 -12.06 -6.719 -16.219 z" style="opacity:0.05"/>
  <path d="m 41.28 8.781 c 3.712 4.085 5.969 9.514 5.969 15.469 c 0 12.703 -10.297 23 -23 23 c -5.954 0 -11.384 -2.256 -15.469 -5.969 c 4.113 3.854 9.637 6.219 15.719 6.219 c 12.703 0 23 -10.298 23 -23 c 0 -6.081 -2.364 -11.606 -6.219 -15.719 z" style="opacity:0.1"/>
  <path d="m 31.25 2.375 c 8.615 3.154 14.75 11.417 14.75 21.13 c 0 12.426 -10.07 22.5 -22.5 22.5 c -9.708 0 -17.971 -6.135 -21.12 -14.75 a 23 23 0 0 0 44.875 -7 a 23 23 0 0 0 -16 -21.875 z" style="opacity:0.2"/>
 </g>
 <g>
  <path d="m 24 1 c 12.703 0 23 10.297 23 23 c 0 12.703 -10.297 23 -23 23 -12.703 0 -23 -10.297 -23 -23 0 -12.703 10.297 -23 23 -23 z" style="fill:url(#linearGradient3764);fill-opacity:1"/>
 </g>
 <g>
  <g>
   <!-- color: #aaaaaa -->
   <g>
    <path d="M 25 10 A 15 15 0 0 0 10 25 A 15 15 0 0 0 25 40 A 15 15 0 0 0 40 25 A 15 15 0 0 0 25 10 z M 25 12 A 13 13 0 0 1 38 25 A 13 13 0 0 1 25 38 A 13 13 0 0 1 12 25 A 13 13 0 0 1 25 12 z M 25.451 13.754 C 24.391 13.754 23.332 14.16 22.52 14.971 L 14.98 22.496 C 13.355 24.12 13.355 26.728 14.98 28.35 C 16.605 29.971 19.219 29.971 20.844 28.35 L 28.383 20.822 C 30.01 19.2 30.01 16.593 28.383 14.971 C 27.572 14.16 26.511 13.754 25.451 13.754 z M 25.453 14.348 C 26.363 14.348 27.27 14.695 27.967 15.389 C 29.358 16.776 29.358 19.02 27.967 20.408 C 26.572 21.795 24.323 21.795 22.938 20.408 C 21.551 19.03 21.551 16.78 22.938 15.389 C 23.633 14.695 24.543 14.348 25.453 14.348 z M 32.15 20.438 C 31.09 20.438 30.04 20.844 29.22 21.654 L 21.68 29.18 C 20.05 30.801 20.05 33.409 21.68 35.03 C 23.305 36.652 25.922 36.652 27.547 35.03 L 35.09 27.51 C 36.711 25.889 36.711 23.275 35.09 21.654 C 34.27 20.844 33.21 20.438 32.15 20.438 z M 32.15 21.04 C 33.06 21.04 33.975 21.381 34.672 22.07 C 36.06 23.467 36.06 25.705 34.672 27.09 C 33.28 28.475 31.03 28.475 29.641 27.09 C 28.25 25.697 28.25 23.459 29.641 22.07 C 30.334 21.381 31.24 21.04 32.15 21.04 z M 17.91 21.875 C 18.82 21.875 19.731 22.22 20.428 22.914 C 21.815 24.297 21.815 26.545 20.428 27.936 C 19.03 29.323 16.78 29.323 15.398 27.936 C 14.01 26.549 14.01 24.301 15.398 22.914 C 16.09 22.22 17 21.875 17.91 21.875 z M 24.613 28.559 C 25.522 28.559 26.43 28.906 27.12 29.6 C 28.512 30.987 28.512 33.23 27.12 34.619 C 25.734 36.01 23.485 36.01 22.1 34.619 C 20.711 33.24 20.711 30.991 22.1 29.6 C 22.795 28.906 23.705 28.559 24.613 28.559 z" style="fill:#000;fill-opacity:0.098;stroke:none;fill-rule:nonzero"/>
    <path d="m 24.451 12.754 c -1.06 0 -2.119 0.404 -2.932 1.215 l -7.539 7.527 c -1.625 1.621 -1.625 4.23 0 5.852 c 1.625 1.621 4.238 1.621 5.863 0 l 7.539 -7.527 c 1.625 -1.621 1.625 -4.23 0 -5.852 c -0.81 -0.81 -1.872 -1.215 -2.932 -1.215 z m 0.002 0.594 c 0.91 0 1.819 0.346 2.514 1.039 c 1.391 1.387 1.391 3.633 0 5.02 c -1.395 1.387 -3.644 1.387 -5.03 0 c -1.387 -1.383 -1.387 -3.629 0 -5.02 c 0.695 -0.694 1.606 -1.039 2.516 -1.039 z m 6.701 6.09 c -1.06 0 -2.119 0.406 -2.932 1.217 l -7.543 7.525 c -1.625 1.621 -1.625 4.23 0 5.852 c 1.625 1.621 4.242 1.621 5.867 0 l 7.539 -7.521 c 1.625 -1.621 1.625 -4.234 0 -5.855 c -0.813 -0.811 -1.872 -1.217 -2.932 -1.217 z m 0 0.598 c 0.91 0 1.821 0.346 2.518 1.037 c 1.387 1.395 1.387 3.633 0 5.02 c -1.391 1.383 -3.642 1.383 -5.03 0 c -1.387 -1.395 -1.387 -3.633 0 -5.02 c 0.694 -0.691 1.604 -1.037 2.514 -1.037 z m -14.244 0.838 c 0.91 0 1.821 0.348 2.518 1.041 c 1.387 1.383 1.387 3.629 0 5.02 c -1.398 1.387 -3.647 1.387 -5.03 0 c -1.391 -1.387 -1.391 -3.633 0 -5.02 c 0.694 -0.694 1.602 -1.041 2.512 -1.041 z m 6.703 6.686 c 0.909 0 1.816 0.348 2.508 1.041 c 1.391 1.387 1.391 3.633 0 5.02 c -1.387 1.395 -3.637 1.395 -5.02 0 c -1.391 -1.383 -1.391 -3.629 0 -5.02 c 0.694 -0.694 1.603 -1.041 2.512 -1.041 z" style="fill:#f9f9f9;fill-opacity:1;stroke:none;fill-rule:nonzero"/>
   </g>
  </g>
 </g>
 <g>
  <path d="m 40.03 7.531 c 3.712 4.084 5.969 9.514 5.969 15.469 0 12.703 -10.297 23 -23 23 c -5.954 0 -11.384 -2.256 -15.469 -5.969 4.178 4.291 10.01 6.969 16.469 6.969 c 12.703 0 23 -10.298 23 -23 0 -6.462 -2.677 -12.291 -6.969 -16.469 z" style="opacity:0.1"/>
 </g>
 <path d="M 24 9 A 15 15 0 0 0 9 24 15 15 0 0 0 24 39 15 15 0 0 0 39 24 15 15 0 0 0 24 9 m 0 2 A 13 13 0 0 1 37 24 13 13 0 0 1 24 37 13 13 0 0 1 11 24 13 13 0 0 1 24 11" style="fill:#f9f9f9;opacity:1;fill-opacity:1;stroke:none"/>
</svg>
